X:1
T:Title
%%score { ( 1 3 ) | ( 2 4 ) }
L:1/8
M:4/4
K:G
V:1 treble nm="Grand Piano"
V:3 treble 
V:2 bass 
V:4 bass 
V:1
 z4 z2[Q:1/4=110] D2 | G2 G2 G3 [FA] | B2 B2 B3 c | d2 e2 d2 B2 |[M:3/4] [^CGB]2 [CGA]2 [DFA]2 | %5
[M:1/4] D2 |[M:4/4] G2 G2 G3 [FA] | B2 B2 B3 c | d2 e2 d2 B2 | A2 [G^c]2 [Fd]4 | [Gd]4 z4 | d8 | %12
 d4 z4 | [FA]6 [FA]2 | B2 B2 c2 d2 | e4 d4 | d4 [G^c]4 | [Fd]8 | d3 d c2 B2 | [FA]6 z2 | %20
 c3 c B2 A2 | [GB]6 z2 | [Ge]3 [Ge] [Ge]2 z2 | d3 d c2 B2 | [EA]4 G2 F2 |[M:3/4] [B,DG]6 |] %26
V:2
 z4 z2 [G,B,]2 | [G,B,D]2 [G,B,D]2 [G,B,D]3 [D,D] | [G,DG]2 [G,DG]2 [G,DG]3 [G,A,G] | %3
 [G,B,G]2 [G,CG]2 [G,B,G]2 [G,DG]2 |[M:3/4][K:bass] E,2 A,,2 D,2 |[M:1/4] [F,C]2 | %6
[M:4/4] [G,B,D]2 [G,B,D]2 [G,B,D]3 [D,D] | [G,DG]2 [G,DG]2 [G,DG]3 [G,DA] | %8
 [G,B,G]2 [G,CG]2 [G,B,G]2 [G,DG]2 | [A,DF]2[K:bass] [A,,A,]2 [D,A,]4 | %10
 [G,B,]G,G,[K:treble][G,EG] [G,DG]2 [G,CG]2 | G8 | G4 z4[K:bass] | [D,D]4 [D,D]2 [D,D]2 | %14
 [G,DG]2 [G,DG]2 [A,DF]2 [B,DG]2 | [CG]4 [B,DG]4 | [A,DF]4[K:bass] [A,,A,]4 | [D,A,]8 | %18
 B3 B A2 G2 | D,D,D,D, D,2 z2 | A3 A G2 F2 | G,[K:bass]G,G,G, G,2 z2 | [C,C]3 [C,C] [C,C]2 z2 | %23
 [G,B,G]3 [G,B,G] [G,EG]2 [G,DG]2 | z4 B,2 z2 |[M:3/4] G,,6 |] %26
V:3
 x8 | x8 | x8 | x8 |[M:3/4] x6 |[M:1/4] x2 |[M:4/4] x8 | x8 | x8 | x8 | z B,B,c B2 e2 | z4 B,4 | %12
 z B,B,c B2 G2 | x8 | x8 | x8 | x8 | x8 | x8 | DDDD D2 z2 | x8 | DDDD D2 z2 | x8 | x8 | x8 | %25
[M:3/4] x6 |] %26
V:4
 x8 | x8 | x8 | x8 |[M:3/4][K:bass] x6 |[M:1/4] x2 |[M:4/4] x8 | x8 | x8 | x2[K:bass] x6 | %10
 x3[K:treble] x5 | [G,B,]4 G,4 | [G,B,]G,G,[G,EG] [G,DG]2[K:bass] [G,B,D]2 | x8 | x8 | x8 | %16
 x4[K:bass] x4 | x8 | x8 | x8 | x8 | x[K:bass] x7 | x8 | x8 | [C,C]4 [D,D]2- [D,A,D]2 | %25
[M:3/4] x6 |] %26

